X:1
T:Title
%%score { ( 1 3 ) | 2 }
L:1/8
M:6/8
K:Ab
V:1 treble nm="Grand Piano"
V:3 treble 
V:2 bass 
V:1
 z3 z2[Q:1/4=90] [CE] | [Ec][Ec][Ec] [Ec][DB][Ec] | [CA]3 [CA]2 c | eee efe |[M:5/8] c-c- c3 | %5
[M:1/8] c |[M:3/4] [Ac][GB] [GB][=DAB] [DAc][A=d] | [Ge]3 [EGB]2 [B,EG] | %8
 [CEF][CEG] [CEA][B,EG] [G,E][A,=DF] |[M:5/8] [G,E]-[G,E]- [G,E]3 |[M:1/8] [G,E] | %11
[M:3/4] z d- d3 z | z c- c3 z | ec B[EA] [DG][CA] | B6 | z c- c3 z | z d- d3 z | cc AG AB | %18
[M:5/8] [CEA]-[CEA]- [CEA]3 |] %19
V:2
 z3 z2 [A,,A,] | [A,,A,][A,,A,][A,,A,] [A,,A,][A,,A,][A,,A,] | [A,,A,]3 [A,,A,]2[K:treble] [A,E] | %3
 [A,CA][A,CA][A,CA] [A,CA][A,DA][A,CA] |[M:5/8] [A,EA]-[A,EA]- [A,EA]3 |[M:1/8] [A,EA] | %6
[M:3/4][K:bass] [E,E][E,E] [E,E]B,, B,,[B,,B,] | [E,B,]3 E,2 E, | A,,A,, A,,B,, B,,B,, | %9
[M:5/8] E,-E,- E,3 |[M:1/8] E, |[M:3/4] E,[E,B,] [E,B,][E,B,] [E,B,][E,D] | %12
 [A,C][A,E] A, A,2 [A,E] | [A,CE][A,E] [E,G,E][C,A,] [B,,E,][A,,A,] | %14
 [E,G,E]2 [E,G,] [E,G,]2 [E,G,E] | [A,E][A,E] A,A, A,[A,_G] | %16
 [D,A,][D,A,] [D,A,][D,A,] [D,A,][D,A,] | [E,A,E][E,A,E] [E,CE][E,B,E] [E,CE][E,DE] | %18
[M:5/8] A,,-A,,- A,,3 |] %19
V:3
 x6 | x6 | x6 | x6 |[M:5/8] x5 |[M:1/8] x |[M:3/4] x6 | x6 | x6 |[M:5/8] x5 |[M:1/8] x | %11
[M:3/4] [G,E]G GG GE | .E2 E E2 c | x6 | z2 E E2 B | .c2 EE Ec | [Fd]F FF F[Fd] | x6 |[M:5/8] x5 |] %19

